public/sgd-logo.svg

<?xml version="1.0" encoding="UTF-8" standalone="no"?>
<!DOCTYPE svg PUBLIC "-//W3C//DTD SVG 1.1//EN" "http://www.w3.org/Graphics/SVG/1.1/DTD/svg11.dtd">
<svg width="100%" height="100%" viewBox="0 0 300 300" version="1.1" xmlns="http://www.w3.org/2000/svg" xmlns:xlink="http://www.w3.org/1999/xlink" xml:space="preserve" xmlns:serif="http://www.serif.com/" style="fill-rule:evenodd;clip-rule:evenodd;stroke-linejoin:round;stroke-miterlimit:2;">
    <g id="Artboard1" transform="matrix(0.879675,0,0,1.1746,23.5793,50.6996)">
        <rect x="-26.805" y="-43.163" width="341.035" height="255.406" style="fill:none;"/>
        <g id="Layer_1-2" transform="matrix(1.13678,0,0,0.851352,-16.0335,7.28426)">
            <path d="M145.46,10L98.46,10L98.46,57C98.46,57 99.46,62 105.46,62L145.46,62L145.46,10Z" style="fill:white;fill-rule:nonzero;"/>
            <path d="M102.46,66C98.571,65.642 95.332,62.807 94.46,59L94.46,10L78.46,10L73.46,8L72.46,4C72.46,4 62.46,0 54.46,0C46.46,0 35.46,5 35.46,5L35.46,8L33.46,9C12.46,29 3.46,93 3.46,93C3.46,93 -6.54,158 7.46,174C14.46,182 27.46,184 43.46,178C59.46,172 73.46,119 73.46,119L76.46,116C76.46,116 82.46,126 94.46,126C106.46,126 116.46,117 116.46,117L145.46,117L145.46,67C145.46,67 109.46,67 102.46,66ZM47.46,30C49.46,28 57.46,28 59.46,30C61.46,32 61.46,37 60.46,40C59.46,43 54.46,48 53.46,48C52.46,48 47.46,43 46.46,40C45.46,37 45.46,32 47.46,30ZM41.21,60.25C38.21,61.25 33.21,61.25 31.21,59.25C29.21,57.25 29.21,49.25 31.21,47.25C33.21,45.25 38.21,45.25 41.21,46.25C44.21,47.25 49.21,52.25 49.21,53.25C49.21,54.25 44.21,59.25 41.21,60.25ZM59.46,75.5C57.46,77.5 49.46,77.5 47.46,75.5C45.46,73.5 45.46,68.5 46.46,65.5C47.46,62.5 52.46,57.5 53.46,57.5C54.46,57.5 59.46,62.5 60.46,65.5C61.46,68.5 61.46,73.5 59.46,75.5ZM76.71,58.25C74.71,60.25 69.71,60.25 66.71,59.25C63.71,58.25 58.71,53.25 58.71,52.25C58.71,51.25 63.71,46.25 66.71,45.25C69.71,44.25 74.71,44.25 76.71,46.25C78.71,48.25 78.71,56.25 76.71,58.25ZM95.46,114C86.683,114 79.46,106.777 79.46,98C79.46,89.223 86.683,82 95.46,82C104.237,82 111.46,89.223 111.46,98C111.46,106.777 104.237,114 95.46,114Z" style="fill:white;fill-rule:nonzero;"/>
            <path d="M154.06,67L154.06,64.38L164.88,63.21L164.88,66C164.88,71.4 167.63,74.69 172.08,74.69C176.53,74.69 179.29,71.93 179.29,67.59C179.29,62.92 177.39,59.53 169.01,51.59C157.88,41.06 154.7,35.33 154.7,27.17C154.7,16.17 161.06,8.94 171.77,8.94C182.48,8.94 188.83,16.15 188.83,27.28L188.83,29.18L178,30.35L178,28.23C178,22.51 175.77,19.54 171.85,19.54C167.93,19.54 165.7,21.98 165.7,26.64C165.7,31.3 168.04,34.7 175.99,42.64C186.82,53.46 190.32,58.87 190.32,67C190.32,77.6 182.9,85.23 172.19,85.23C161.48,85.23 154.06,77.63 154.06,67Z" style="fill:white;fill-rule:nonzero;"/>
            <path d="M223.71,33.11L223.71,26.85C223.71,22.19 221.06,19.54 216.92,19.54C212.78,19.54 210.14,22.19 210.14,26.85L210.14,67.35C210.14,72.01 212.79,74.66 216.92,74.66C221.05,74.66 223.71,72.01 223.71,67.35L223.71,54.2L216.92,54.2L216.92,43.6L234.92,43.6L234.92,67.35C234.92,78.05 227.71,85.26 216.92,85.26C206.13,85.26 198.92,78.05 198.92,67.35L198.92,26.85C198.92,16.15 206.13,8.94 216.92,8.94C227.71,8.94 234.92,16.15 234.92,26.85L234.92,33.11L223.71,33.11Z" style="fill:white;fill-rule:nonzero;"/>
            <path d="M245.86,10L263.45,10C274.16,10 281.05,17 281.05,27.7L281.05,66.5C281.05,77.2 274.16,84.2 263.45,84.2L245.86,84.2L245.86,10ZM262.93,73.6C267.27,73.6 269.81,71.06 269.81,66.71L269.81,27.49C269.81,23.14 267.27,20.6 262.93,20.6L257.09,20.6L257.09,73.6L262.93,73.6Z" style="fill:white;fill-rule:nonzero;"/>
            <path d="M154.46,104.68C154.46,95.32 158.41,88.78 166.52,88.78C173.2,88.78 177.01,92.42 177.01,99.06C177.01,104.06 175.54,110.14 170.78,110.14C168.86,110.14 167.88,109.23 167.6,107.79C167,109.188 165.631,110.11 164.11,110.14C161.59,110.14 160.51,108.56 160.51,106.14C160.515,105.806 160.539,105.472 160.58,105.14L161.03,100.53C161.35,97.31 162.88,95.92 165.03,95.92C166.335,95.835 167.578,96.515 168.21,97.66L168.35,96.26L171.74,96.26L170.74,105.7C170.727,105.84 170.727,105.98 170.74,106.12C170.74,106.68 170.99,107.03 171.62,107.03C173.44,107.03 174.2,102.38 174.2,99.03C174.2,94.48 171.41,91.79 166.72,91.79C160.15,91.79 157.85,97.38 157.85,105.07C157.85,110.81 161.17,113.85 166.85,113.85C169.125,113.906 171.351,113.174 173.15,111.78L172.87,115.14C171.044,116.269 168.926,116.839 166.78,116.78C159,116.74 154.46,112.44 154.46,104.68ZM167.46,104.47L167.77,101.4L167.77,101.15C167.77,99.72 167.18,98.81 165.99,98.81C164.8,98.81 164.42,99.81 164.31,100.91L163.89,105C163.876,105.163 163.876,105.327 163.89,105.49C163.89,106.49 164.31,107.17 165.39,107.17C166.47,107.17 167.29,106.43 167.5,104.47L167.46,104.47Z" style="fill:white;fill-rule:nonzero;"/>
            <path d="M180.36,109.26L180.36,90.18L184.07,90.18L184.07,109.26C184.063,109.328 184.06,109.395 184.06,109.463C184.06,110.599 184.994,111.533 186.13,111.533C187.266,111.533 188.2,110.599 188.2,109.463C188.2,109.395 188.197,109.328 188.19,109.26L188.19,90.18L191.83,90.18L191.83,109.26C191.836,109.366 191.839,109.471 191.839,109.577C191.839,112.556 189.388,115.007 186.409,115.007C186.316,115.007 186.223,115.005 186.13,115C186.031,115.005 185.932,115.008 185.833,115.008C182.827,115.008 180.353,112.534 180.353,109.528C180.353,109.439 180.356,109.349 180.36,109.26Z" style="fill:white;fill-rule:nonzero;"/>
            <path d="M207.62,90.18L203.57,114.65L198.57,114.65L194.51,90.18L198.29,90.18L201.08,109.4L203.88,90.18L207.62,90.18Z" style="fill:white;fill-rule:nonzero;"/>
            <path d="M217,109.23L213,109.23L212.2,114.65L208.49,114.65L212.55,90.18L217.55,90.18L221.61,114.65L217.83,114.65L217,109.23ZM216.51,105.66L215,95.42L213.49,105.66L216.51,105.66Z" style="fill:white;fill-rule:nonzero;"/>
        </g>
    </g>
</svg>

<!-- Minified at https://svgomg.net/ -->
<svg viewBox="0 0 300 300" xmlns="http://www.w3.org/2000/svg" xml:space="preserve" style="fill-rule:evenodd;clip-rule:evenodd;stroke-linejoin:round;stroke-miterlimit:2">
    <path style="fill:none" d="M-26.805-43.163H314.23v255.406H-26.805z" transform="matrix(.87967 0 0 1.1746 23.58 50.7)"/>
    <path d="M145.46 10h-47v47s1 5 7 5h40V10Z" style="fill:#fff;fill-rule:nonzero" transform="matrix(1 0 0 1 9.475 59.256)"/>
    <path d="M102.46 66a9.08 9.08 0 0 1-8-7V10h-16l-5-2-1-4s-10-4-18-4-19 5-19 5v3l-2 1c-21 20-30 84-30 84s-10 65 4 81c7 8 20 10 36 4s30-59 30-59l3-3s6 10 18 10 22-9 22-9h29V67s-36 0-43-1Zm-55-36c2-2 10-2 12 0s2 7 1 10-6 8-7 8-6-5-7-8-1-8 1-10Zm-6.25 30.25c-3 1-8 1-10-1s-2-10 0-12 7-2 10-1 8 6 8 7-5 6-8 7ZM59.46 75.5c-2 2-10 2-12 0s-2-7-1-10 6-8 7-8 6 5 7 8 1 8-1 10Zm17.25-17.25c-2 2-7 2-10 1s-8-6-8-7 5-6 8-7 8-1 10 1 2 10 0 12ZM95.46 114c-8.777 0-16-7.223-16-16 0-8.777 7.223-16 16-16 8.777 0 16 7.223 16 16 0 8.777-7.223 16-16 16ZM154.06 67v-2.62l10.82-1.17V66c0 5.4 2.75 8.69 7.2 8.69s7.21-2.76 7.21-7.1c0-4.67-1.9-8.06-10.28-16-11.13-10.53-14.31-16.26-14.31-24.42 0-11 6.36-18.23 17.07-18.23s17.06 7.21 17.06 18.34v1.9L178 30.35v-2.12c0-5.72-2.23-8.69-6.15-8.69-3.92 0-6.15 2.44-6.15 7.1s2.34 8.06 10.29 16c10.83 10.82 14.33 16.23 14.33 24.36 0 10.6-7.42 18.23-18.13 18.23-10.71 0-18.13-7.6-18.13-18.23ZM223.71 33.11v-6.26c0-4.66-2.65-7.31-6.79-7.31-4.14 0-6.78 2.65-6.78 7.31v40.5c0 4.66 2.65 7.31 6.78 7.31 4.13 0 6.79-2.65 6.79-7.31V54.2h-6.79V43.6h18v23.75c0 10.7-7.21 17.91-18 17.91s-18-7.21-18-17.91v-40.5c0-10.7 7.21-17.91 18-17.91s18 7.21 18 17.91v6.26h-11.21ZM245.86 10h17.59c10.71 0 17.6 7 17.6 17.7v38.8c0 10.7-6.89 17.7-17.6 17.7h-17.59V10Zm17.07 63.6c4.34 0 6.88-2.54 6.88-6.89V27.49c0-4.35-2.54-6.89-6.88-6.89h-5.84v53h5.84ZM154.46 104.68c0-9.36 3.95-15.9 12.06-15.9 6.68 0 10.49 3.64 10.49 10.28 0 5-1.47 11.08-6.23 11.08-1.92 0-2.9-.91-3.18-2.35a3.887 3.887 0 0 1-3.49 2.35c-2.52 0-3.6-1.58-3.6-4 .005-.334.029-.668.07-1l.45-4.61c.32-3.22 1.85-4.61 4-4.61a3.387 3.387 0 0 1 3.18 1.74l.14-1.4h3.39l-1 9.44c-.013.14-.013.28 0 .42 0 .56.25.91.88.91 1.82 0 2.58-4.65 2.58-8 0-4.55-2.79-7.24-7.48-7.24-6.57 0-8.87 5.59-8.87 13.28 0 5.74 3.32 8.78 9 8.78a9.891 9.891 0 0 0 6.3-2.07l-.28 3.36a11.008 11.008 0 0 1-6.09 1.64c-7.78-.04-12.32-4.34-12.32-12.1Zm13-.21.31-3.07v-.25c0-1.43-.59-2.34-1.78-2.34s-1.57 1-1.68 2.1l-.42 4.09a2.864 2.864 0 0 0 0 .49c0 1 .42 1.68 1.5 1.68s1.9-.74 2.11-2.7h-.04ZM180.36 109.26V90.18h3.71v19.08a2.08 2.08 0 0 0 2.06 2.273 2.08 2.08 0 0 0 2.06-2.273V90.18h3.64v19.08c.006.106.009.211.009.317 0 2.979-2.451 5.43-5.43 5.43-.093 0-.186-.002-.279-.007a5.888 5.888 0 0 1-.297.008c-3.006 0-5.48-2.474-5.48-5.48 0-.089.003-.179.007-.268ZM207.62 90.18l-4.05 24.47h-5l-4.06-24.47h3.78l2.79 19.22 2.8-19.22h3.74ZM217 109.23h-4l-.8 5.42h-3.71l4.06-24.47h5l4.06 24.47h-3.78l-.83-5.42Zm-.49-3.57L215 95.42l-1.51 10.24h3.02Z" style="fill:#fff;fill-rule:nonzero" transform="matrix(1 0 0 1 9.475 59.256)"/>
</svg>
